!!!OTL: Nascente Christo Domino
**kern
*staff1
=1-
*clefF4
*k[b-]
*M3/1
0r
0r
1r
1D
=2
2E\
1F
2D\
1E
1D
=3
0r
0r
1r
2.D\
4E\
=4
2F\
1G
!!linebreak:original
=5
1G
2D\
1G
2E\
1D
1C
=6
2C/
1G
2D\
1G
2E\
1D
1C
=7
2C/
2G\
2F\
2G\
2C/
1D
0GG
==
*-
!!title: @{OTL}, @{GTL}, ed. @{ENC}
!!!pag:
!!!GTL: Hymnbook D
!!!EFL: 
!!!YEM: Creative Commons CC/BY/NC/SA 4.0
!!!ENC: Marcin Konik
!!!END: 2015-0m-dd
!!!EED: Marcin Konik
!!!EEV: 
!!!ONB: Encoded in vim by Marcin Konik
!!!CharacterEncoding: utf-8
!!!RDF**kern: l=long note in original notation
!!!RDF**kern: i=editorial accidental
!!muse2ps: z14jc180F
!!!COM: Anonim
!!!CDT: [?]
!!!TXO: Polish
!!!ODT: 
!!!GTL: Hymnbook D
!!!ARL: Opactwo św. Wojciecha, Staniątki 
!!!voices:	1
